X:790
T:Brighams
O:england
A:North-West
R:Hornpipe
N:Bob Tysons 2nd of pair
M:4/4
K:G
(3def|\
gfgd BcBA| GFGe dgdB| cBcd edcB| A2d2 d2(3def|\
gfgd BcBA| GFGe dgdB|
cAec BAGF| A2G2 G2:|\
|:FG|\
AGAB cAec| Bdgd BgdB|
ecdB cABG| (3FAd (3gfe (3ded (3cBA|\
GBdB gdBG| cAae cafd| ecdB cAGF| A2G2 G2:|


